X: 124
T:Muiñeira da Fonte Santa
M:6/8
L:1/8
Q:200
C:Emilio Fernández
R:Muiñeira
K:C
GAB | c2A B2 G| "~"E2C ECE | {C}EDC AFA |{C}AGE CEG |c2 A B2G | "~"E2 C
ECE |CEG FED|
C3 :| ECE | {C}ECE CEC | FDF {C}FDF| DEC GEG | {C}GDG FED | EDC ECE|  {C
}ECE CEC| FDF {C}FDF|
DEC GEG| {C}GDG FED |C3 GAB| c6 |B3 GAB | c6| B3 cBA| G3 EFG |"~"A2 G/>"
F."c/ GFG |
DEF GAG | EDC GAB | c6| B3 GAB |c6 |B3 cBA | G3EFG |"~"A2 G/>"F."c/ GFG
| DEF GcG| C3||

